!!!cenid: 16xx:1771
!!!COM: Scacchi, Marco
!!!COM-rismID: pe30013433
!!!CDT: ~1605-1662
!!!CNT: Italian
!!!OPR: Missa omnium tonorum pro electione Regis Poloniae Casimiri
!!!OTL: Sanctus
!!!OMV: 004
!!!PDT:
!!!AGN:
!!!SMS-siglum: D-B
!!!SMS-shelfmark: Mus.ms. 19600/1
!!!SMS-shelfwork: 001-004 M
!!!SMS-variant:
!!!SMS-altvar:
!!!NIFC-rismSourceID: 452507522
!!!NIFC-rismChildID: 452507522
!!!NIFC-islandoraID: none
!!!URL-pdf-islandora:
!!!URL-scan: https://digital.staatsbibliothek-berlin.de/werkansicht?PPN=PPN73488298X&PHYSID=PHYS_0003&DMDID= @EN{Scan on Staatsbibliothek zu Berlin Website} @PL{Skany w portalu Staatsbibliothek zu Berlin}
!!!ONB-nifc: UWAGA: Sanctus na s. 83-90. Części Mszy: 1. Kyrie, 2. Et in terra, 3. Patrem, 4. Sanctus, 5. Benedictus, 6. Agnus Dei
!!!AIN: 3 alto 3 bass 1 fagot 1 organ 4 soprn 3 tenor 3 viola 2 violn
!!!key: d:dor
**kern	**fbb	**kern	**text	**kern	**text	**kern	**kern	**text	**kern	**text	**kern	**text	**kern	**kern	**text	**kern	**text	**kern	**text	**kern	**text	**kern	**text	**kern	**text	**kern	**kern	**kern	**dynam	**kern	**kern	**kern
*	*	*group4	*	*group4	*	*group4	*group4	*	*group3	*	*group3	*	*group3	*group3	*	*group2	*	*group2	*	*group2	*	*group2	*	*group2	*	*group1	*group1	*group1	*	*group1	*group1	*group1
*	*	*	*	*	*	*	*I""Coro ripieno	*	*	*	*	*	*	*I""Coro Secondo.	*	*	*	*	*	*	*	*	*	*I""Coro primo.	*	*	*	*	*	*	*	*
*part20	*	*part19	*part19	*part18	*part18	*part17	*part16	*part16	*part15	*part15	*part14	*part14	*part13	*part12	*part12	*part11	*part11	*part10	*part10	*part9	*part9	*part8	*part8	*part7	*part7	*part6	*part5	*part4	*part4	*part3	*part2	*part1
*staff20	*	*staff19	*staff19	*staff18	*staff18	*staff17	*staff16	*staff16	*staff15	*staff15	*staff14	*staff14	*staff13	*staff12	*staff12	*staff11	*staff11	*staff10	*staff10	*staff9	*staff9	*staff8	*staff8	*staff7	*staff7	*staff6	*staff5	*staff4	*	*staff3	*staff2	*staff1
*I"Continuo	*	*I"	*	*I"	*	*I"	*I"	*	*I"	*	*I"	*	*I"	*I"	*	*I"	*	*I"	*	*I"	*	*I"	*	*I"	*	*I"Fagotto	*I"Viola 3.	*I"Viola 2	*	*I"Viola 1.	*I"Violino 2.	*I"Violino I.
*I'	*	*I'	*	*I'	*	*I'	*I'	*	*I'	*	*I'	*	*I'	*I'	*	*I'	*	*I'	*	*I'	*	*I'	*	*I'	*	*I'	*I'	*I'	*	*I'	*I'	*I'
*IGcont	*	*IGcoro	*	*IGcoro	*	*IGcoro	*IGcoro	*	*IGcoro	*	*IGcoro	*	*IGcoro	*IGcoro	*	*IGcoro	*	*IGcoro	*	*IGcoro	*	*IGcoro	*	*IGcoro	*	*	*	*	*	*	*	*
*ICklav	*	*ICvox	*	*ICvox	*	*ICvox	*ICvox	*	*ICvox	*	*ICvox	*	*ICvox	*ICvox	*	*ICvox	*	*ICvox	*	*ICvox	*	*ICvox	*	*ICvox	*	*ICww	*ICstr	*ICstr	*	*ICstr	*ICstr	*ICstr
*Iorgan	*	*Ibass	*	*Itenor	*	*Ialto	*Isoprn	*	*Ibass	*	*Itenor	*	*Ialto	*Isoprn	*	*Ibass	*	*Itenor	*	*Ialto	*	*Isoprn	*	*Isoprn	*	*Ifagot	*Iviola	*Iviola	*	*Iviola	*Ivioln	*Ivioln
*clefF4	*	*clefF4	*	*clefC4	*	*clefC3	*clefC1	*	*clefF4	*	*clefC4	*	*clefC3	*clefC1	*	*clefF4	*	*clefC4	*	*clefC3	*	*clefC1	*	*clefC1	*	*clefF4	*clefC4	*clefC3	*	*clefC3	*clefG2	*clefG2
*k[b-]	*	*k[b-]	*	*k[b-]	*	*k[b-]	*k[b-]	*	*k[b-]	*	*k[b-]	*	*k[b-]	*k[b-]	*	*k[b-]	*	*k[b-]	*	*k[b-]	*	*k[b-]	*	*k[b-]	*	*k[b-]	*k[b-]	*k[b-]	*	*k[b-]	*k[b-]	*k[b-]
*d:dor	*	*d:dor	*	*d:dor	*	*d:dor	*d:dor	*	*d:dor	*	*d:dor	*	*d:dor	*d:dor	*	*d:dor	*	*d:dor	*	*d:dor	*	*d:dor	*	*d:dor	*	*d:dor	*d:dor	*d:dor	*	*d:dor	*d:dor	*d:dor
*M2/1	*	*M2/1	*	*M2/1	*	*M2/1	*M2/1	*	*M2/1	*	*M2/1	*	*M2/1	*M2/1	*	*M2/1	*	*M2/1	*	*M2/1	*	*M2/1	*	*M2/1	*	*M2/1	*M2/1	*M2/1	*	*M2/1	*M2/1	*M2/1
*met(C|)	*	*met(C|)	*	*met(C|)	*	*met(C|)	*met(C|)	*	*met(C|)	*	*met(C|)	*	*met(C|)	*met(C|)	*	*met(C|)	*	*met(C|)	*	*met(C|)	*	*met(C|)	*	*met(C|)	*	*met(C|)	*met(C|)	*met(C|)	*	*met(C|)	*met(C|)	*met(C|)
*all\right	*	*all\right	*	*all\right	*	*all\right	*all\right	*	*all\right	*	*all\right	*	*all\right	*all\right	*	*all\right	*	*all\right	*	*all\right	*	*all\right	*	*all\right	*	*all\right	*all\right	*all\right	*	*all\right	*all\right	*all\right
*2\right	*	*2\right	*	*2\right	*	*2\right	*2\right	*	*2\right	*	*2\right	*	*2\right	*2\right	*	*2\right	*	*2\right	*	*2\right	*	*2\right	*	*2\right	*	*2\right	*2\right	*2\right	*	*2\right	*2\right	*2\right
=1	=1	=1	=1	=1	=1	=1	=1	=1	=1	=1	=1	=1	=1	=1	=1	=1	=1	=1	=1	=1	=1	=1	=1	=1	=1	=1	=1	=1	=1	=1	=1	=1
!!LO:TX:b:t=Noni toni
!	!	!LO:TX:a:t=col coro secondo	!	!LO:TX:a:t=col coro secondo	!	!LO:TX:a:t=col coro secondo	!LO:TX:a:t=col coro secondo	!	!	!	!LO:TX:a:t=col tenore del coro 1	!	!LO:TX:a:t=col alto  del coro 1.	!LO:TX:a:t=col canto 2 del coro 1.	!	!	!	!	!	!	!	!	!	!	!	!	!	!	!	!	!	!LO:TX:t=P:problem:znak alla breve (przekreślone C)
0D	.	0Dyy	San-	0dyy	.	0fyy	0ayy	.	0D	San-	0dyy	.	0fyy	0ayy	.	0D	San-	0d	.	0f	.	0a	.	(1.dd	San-	0D	0d	0f	.	0f	0a	1.dd
!	!	!	!	!	!	!	!	!	!	!	!	!	!	!	!	!	!	!	!	!	!	!	!	!	!	!	!	!	!	!	!	!LO:TX:t=P:problem:all/right:global
.	.	.	.	.	.	.	.	.	.	.	.	.	.	.	.	.	.	.	.	.	.	.	.	2a\)	.	.	.	.	.	.	.	2aa\
=2	=2	=2	=2	=2	=2	=2	=2	=2	=2	=2	=2	=2	=2	=2	=2	=2	=2	=2	=2	=2	=2	=2	=2	=2	=2	=2	=2	=2	=2	=2	=2	=2
0AA	.	0A;yy	-ctus	0c#Xyy	.	0eyy	0ayy	.	0A;	-ctus	0c#Xyy	.	0eyy	0ayy	.	0AA;	-ctus	0c#X	.	0e	.	0a	.	0a;	-ctus	0AA	0c#X	0e	.	0e	0a	0aa;
=3	=3	=3	=3	=3	=3	=3	=3	=3	=3	=3	=3	=3	=3	=3	=3	=3	=3	=3	=3	=3	=3	=3	=3	=3	=3	=3	=3	=3	=3	=3	=3	=3
*	*	*	*	*	*	*	*	*	*	*	*	*	*	*	*	*	*	*	*	*	*	*	*	*	*ij	*	*	*	*	*	*	*
!	!	!	!	!	!	!	!	!	!LO:TX:a:t=col basso del Coro 1.	!	!	!	!	!	!	!	!	!	!	!	!	!	!	!	!	!	!	!LO:TX:a:t=colla 1ma	!	!	!	!
2F\	.	2F\yy	.	2A\yy	.	2f\yy	2cc\yy	.	2F\yy	.	2A\yy	.	2f\yy	2cc\yy	.	2F\	.	2A\	.	2f\	.	2cc\	.	2cc\	San-	2F\	2A\	1fyy	.	1f	2cc\	1cc
2E-X\	.	2E-X\yy	.	1cyy	.	2g\yy	2ee-X\yy	.	2E-X\yy	.	1cyy	.	2g\yy	2ee-X\yy	.	2E-X\	.	1c	.	2g\	.	2ee-X\	.	2cc\	-ctus	2E-X\	1c	.	.	.	2ee-X\	.
1G	.	1Gyy	.	.	.	2.g\yy	1ddyy	.	1Gyy	.	.	.	2.g\yy	1ddyy	.	1G	.	.	.	2.g\	.	1dd	.	1dd	San-	1G	.	2.g\yy	.	2.g\	1dd	1dd
.	.	.	.	[y2B-\yy	.	.	.	.	.	.	[y2B-\yy	.	.	.	.	.	.	[2B-\	.	.	.	.	.	.	.	.	[2B-\	.	.	.	.	.
.	.	.	.	.	.	4f\yy	.	.	.	.	.	.	4f\yy	.	.	.	.	.	.	4f\	.	.	.	.	.	.	.	4f\yy	.	4f\	.	.
=4	=4	=4	=4	=4	=4	=4	=4	=4	=4	=4	=4	=4	=4	=4	=4	=4	=4	=4	=4	=4	=4	=4	=4	=4	=4	=4	=4	=4	=4	=4	=4	=4
0C	.	0Cyy	.	2B-\]yy	.	2e\yy	0ccyy	.	0Cyy	.	2B-\]yy	.	2e\yy	0ccyy	.	0C	.	2B-\]	.	2e\	.	0cc	.	0cc	-ctus	0C	2B-\]	2e\yy	.	2e\	0cc	0cc
*	*	*	*	*	*	*	*	*	*	*	*	*	*	*	*	*	*	*	*	*	*	*	*	*	*Xij	*	*	*	*	*	*	*
.	.	.	.	2A\yy	.	1fyy	.	.	.	.	2A\yy	.	1fyy	.	.	.	.	2A\	.	1f	.	.	.	.	.	.	2A\	1fyy	.	1f	.	.
.	.	.	.	1Gyy	.	.	.	.	.	.	1Gyy	.	.	.	.	.	.	1G	.	.	.	.	.	.	.	.	1G	.	.	.	.	.
.	.	.	.	.	.	2e\yy	.	.	.	.	.	.	2e\yy	.	.	.	.	.	.	2e\	.	.	.	.	.	.	.	2e\yy	.	2e\	.	.
=5	=5	=5	=5	=5	=5	=5	=5	=5	=5	=5	=5	=5	=5	=5	=5	=5	=5	=5	=5	=5	=5	=5	=5	=5	=5	=5	=5	=5	=5	=5	=5	=5
!	!	!	!	!	!	!	!	!	!	!	!	!	!	!	!	!	!	!	!	!	!	!LO:TX:a:t=col 1mo	!	!	!	!	!	!	!	!	!LO:TX:a:t=col primo	!
2.FF/	5:6	2.FF/yy	.	2.A\yy	.	2f\yy	2cc\yy	Do-	2.FF/yy	.	2.A\yy	.	2f\yy	2cc\yy	Do-	2.FF/	.	2.A\	.	2f\	.	2cc\yyyy	Do-	2cc\	Do-	2.FF/	1A	2f\yy	.	2f\	2cc\yy	2cc\
.	.	.	.	.	.	2.a\yy	2dd\yy	-mi-	.	.	.	.	2.a\yy	2dd\yy	-mi-	.	.	.	.	2.a\	.	2dd\yyyy	-mi-	2dd\	-mi-	.	.	2.a\yy	.	2.a\	2dd\yy	2dd\
4FF/	.	4FF/yy	.	4G/yy	.	.	.	.	4FF/yy	.	4G/yy	.	.	.	.	4FF/	.	4G/	.	.	.	.	.	.	.	4FF/	.	.	.	.	.	.
2.GG/	9:8	2GG/yy	.	2D/yy	.	.	2b-\yy	-nus	2GG/yy	.	2D/yy	.	.	2b-\yy	-nus	2GG/	.	2D/	.	.	.	2b-\yyyy	-nus	2b-\	-nus	1GG	2D/	.	.	.	1b-yy	1b-
.	.	.	.	.	.	4g\yy	.	.	.	.	.	.	4g\yy	.	.	.	.	.	.	4g\	.	.	.	.	.	.	.	4g\yy	.	4g\	.	.
.	.	4GG/yy	.	4d\yy	.	[y2g\yy	4b-\yy	De-	4GG/yy	.	4d\yy	.	[y2g\yy	4b-\yy	De-	4GG/	.	4d\	.	[2g\	.	4b-\yyyy	De-	4b-\	De-	.	4d\	[y2g\yy	.	[2g\	.	.
4GG/	.	4GG/yy	.	4e\yy	.	.	4b-\yy	-us	4GG/yy	.	4e\yy	.	.	4b-\yy	-us	4GG/	.	4e\	.	.	.	4b-\yyyy	-us	4b-\	-us	.	4e\	.	.	.	.	.
!!pagebreak:original
=6	=6	=6	=6	=6	=6	=6	=6	=6	=6	=6	=6	=6	=6	=6	=6	=6	=6	=6	=6	=6	=6	=6	=6	=6	=6	=6	=6	=6	=6	=6	=6	=6
0AA	7 #:6 4:5 #	1.AAyy	.	2c#X\yy	.	2g\]yy	1.ayy	Sa-	1.AAyy	.	2c#X\yy	.	2g\]yy	1.ayy	Sa-	1.AA	.	2c#X\	.	2g\]	.	1.ayyyy	Sa-	1.a	Sa-	0AA	2c#X\	2g\]yy	.	2g\]	0a	1a
.	.	.	.	1dyy	.	4f\yy	.	.	.	.	1dyy	.	4f\yy	.	.	.	.	1d	.	4f\	.	.	.	.	.	.	1d	2f\yy	.	2f\	.	.
.	.	.	.	.	.	4f\yy	.	.	.	.	.	.	4f\yy	.	.	.	.	.	.	4f\	.	.	.	.	.	.	.	.	.	.	.	.
.	.	.	.	.	.	2.e\yy	.	.	.	.	.	.	2.e\yy	.	.	.	.	.	.	2.e\	.	.	.	.	.	.	.	1eyy	.	1e	.	[1aa
.	.	2AA/yy	.	2c#X\yy	.	.	2a\yy	-ba-	2AA/yy	.	2c#X\yy	.	.	2a\yy	-ba-	2AA/	.	2c#X\	.	.	.	2a\yyyy	-ba-	2a\	-ba-	.	2c#\	.	.	.	.	.
.	.	.	.	.	.	4e\yy	.	.	.	.	.	.	4e\yy	.	.	.	.	.	.	4e\	.	.	.	.	.	.	.	.	.	.	.	.
=7	=7	=7	=7	=7	=7	=7	=7	=7	=7	=7	=7	=7	=7	=7	=7	=7	=7	=7	=7	=7	=7	=7	=7	=7	=7	=7	=7	=7	=7	=7	=7	=7
0D	#	0Dyy	.	0dyy	.	0f#Xyy	0ayy	-oth	0Dyy	.	0dyy	.	0f#Xyy	0ayy	-oth	0D	.	0d	.	0f#X	.	0ayyyy	-oth	0a	-oth	0D	0d	0f#Xyy	.	0f#X	0a	2aa\]
.	.	.	.	.	.	.	.	.	.	.	.	.	.	.	.	.	.	.	.	.	.	.	.	.	.	.	.	.	.	.	.	2a/
.	.	.	.	.	.	.	.	.	.	.	.	.	.	.	.	.	.	.	.	.	.	.	.	.	.	.	.	.	.	.	.	1a
=8	=8	=8	=8	=8	=8	=8	=8	=8	=8	=8	=8	=8	=8	=8	=8	=8	=8	=8	=8	=8	=8	=8	=8	=8	=8	=8	=8	=8	=8	=8	=8	=8
!	!	!	!	!	!	!	!	!	!	!	!	!	!	!	!	!	!	!	!	!	!	!	!	!	!	!	!	!	!	!	!	!
4r	.	4ryy	.	4ryy	.	4ryy	4ryy	.	4ryy	.	4ryy	.	4ryy	4ryy	.	4r	.	4r	.	4r	.	4ryy	.	4r	.	4r	4r	4ryy	.	4r	4r	4r
!	!	!	!	!	!	!	!	!	!	!	!	!	!	!	!	!	!	!	!	!	!	!	!	!	!	!	!	!	!	!	!LO:TX:a:t=col primo	!
2BB-X\	.	2BB-X/yy	.	2d\yy	.	2fn\yy	2b-\yy	ple-	2BB-X/yy	.	2d\yy	.	2fn\yy	2b-\yy	ple-	2BB-X/	.	2d\	.	2fn\	.	2b-\yy	ple-	2b-\	ple-	2BB-X/	2d\	2fn\yy	.	2fn\	2b-\yy	2b-\
4BB-/	.	8BB-/yy	.	8d\yy	.	8f\yy	8b-\yy	-ni	8BB-/yy	.	8d\yy	.	8f\yy	8b-\yy	-ni	8BB-/	.	8d\	.	8f\	.	8b-\yy	-ni	8b-\	-ni	4BB-/	8d\	4f\yy	.	4f\	8b-\yy	8b-\
.	.	8BB-/yy	.	8d\yy	.	8f\yy	8b-\yy	sunt	8BB-/yy	.	8d\yy	.	8f\yy	8b-\yy	sunt	8BB-/	.	8d\	.	8f\	.	8b-\yy	sunt	8b-\	sunt	.	8d\	.	.	.	8b-\yy	8b-\
2E-X\	.	2E-X\yy	.	2B-\yy	.	2g\yy	2b-\yy	coe-	2E-X\yy	.	2B-\yy	.	2g\yy	2b-\yy	coe-	2E-X\	.	2B-\	.	2g\	.	2b-\yy	coe-	2b-\	coe-	2E-X\	2B-\	2g\yy	.	2g\	2b-\yy	2b-\
2D\	-6r	4D\yy	.	4d\yy	.	4f\yy	[y2b-\yy	-li	4D\yy	.	4d\yy	.	4f\yy	[y2b-\yy	-li	4D\	.	4d\	.	4f\	.	[y2b-\yy	-li	[2b-\	-li	2D\	4d\	4f\yy	.	4f\	[y2b-\yy	[2b-\
.	.	4D\yy	.	4d\yy	.	4f\yy	.	.	4D\yy	.	4d\yy	.	4f\yy	.	.	4D\	.	4d\	.	4f\	.	.	.	.	.	.	4d\	4f\yy	.	4f\	.	.
=9	=9	=9	=9	=9	=9	=9	=9	=9	=9	=9	=9	=9	=9	=9	=9	=9	=9	=9	=9	=9	=9	=9	=9	=9	=9	=9	=9	=9	=9	=9	=9	=9
!	!	!LO:TX:a:t=col basso del coro 1	!	!	!	!LO:TX:a:t=col alto del coro 1	!	!	!	!	!	!	!	!	!	!	!	!	!	!	!	!	!	!	!	!	!	!	!	!	!	!
1F	4:3	1Fyy	.	1cyy	.	2f\yy	4b-\]yy	.	1F	.	1cyy	.	2f\	4b-\]yy	.	1F	.	1c	.	2f\	.	4b-\]yy	.	4b-\]	.	1F	1c	1fyy	.	1f	4b-\]yy	4b-\]
.	.	.	.	.	.	.	4b-\yy	et	.	.	.	.	.	4b-\yy	et	.	.	.	.	.	.	4b-\yy	et	4b-\	et	.	.	.	.	.	4b-\yy	4b-\
.	.	.	.	.	.	2f\yy	2a\yy	ter-	.	.	.	.	4f\	2a\yy	ter-	.	.	.	.	2f\	.	2a\yy	ter-	2a\	ter-	.	.	.	.	.	2a\yy	2a\
.	.	.	.	.	.	.	.	.	.	.	.	.	4.f\	.	.	.	.	.	.	.	.	.	.	.	.	.	.	.	.	.	.	.
2.B-\	.	4BB-/yy	.	4d\yy	.	4.f\yy	2b-\yy	-ra	2BB-/	.	4d\yy	.	.	2b-\yy	-ra	4BB-/	.	4d\	.	4.f\	.	2b-\yy	-ra	2b-\	-ra	4BB-/	4d\	4.f\yy	.	4.f\	2b-\yy	2b-\
.	.	.	.	.	.	.	.	.	.	.	.	.	8e\	.	.	.	.	.	.	.	.	.	.	.	.	.	.	.	.	.	.	.
.	.	4.B-\yy	.	4.d\yy	.	.	.	.	.	.	4.d\yy	.	2d\	.	.	4.B-\	.	4.d\	.	.	.	.	.	.	.	4.B-\	4.d\	.	.	.	.	.
.	.	.	.	.	.	8e\yy	.	.	.	.	.	.	.	.	.	.	.	.	.	8e\	.	.	.	.	.	.	.	8f\yy	.	8f\	.	.
.	.	.	.	.	.	4.d\yy	4.b-\yy	glo-	4.B-\	.	.	.	.	4.b-\yy	glo-	.	.	.	.	4.d\	.	4.b-\yy	glo-	4.b-\	glo-	.	.	4.d\yy	.	4.d\	4.b-\yy	4.b-\
.	.	8A\yy	.	8c\yy	.	.	.	.	.	.	8c\yy	.	.	.	.	8A\	.	8c\	.	.	.	.	.	.	.	8A\	8c\	.	.	.	.	.
4G\	.	4G\yy	.	4B-\yy	.	.	.	.	.	.	4B-\yy	.	[4d\	.	.	[y4G\	.	[y4B-\	.	.	.	.	.	.	.	[4G\	[4B-\	.	.	.	.	.
.	.	.	.	.	.	8c\yy	8cc\yy	.	8A\	.	.	.	.	8cc\yy	.	.	.	.	.	8c\	.	8cc\yy	.	8cc\	.	.	.	8c\yy	.	8c\	8cc\yy	8cc\
=10	=10	=10	=10	=10	=10	=10	=10	=10	=10	=10	=10	=10	=10	=10	=10	=10	=10	=10	=10	=10	=10	=10	=10	=10	=10	=10	=10	=10	=10	=10	=10	=10
!	!	!	!	!	!	!	!	!	!	!	!	!	!	!	!	!LO:N:vis:xstem:cue	!	!LO:N:vis:xstem:cue	!	!	!	!	!	!	!	!	!	!	!	!	!	!
4F\	.	8ryy	.	8ryy	.	2.B-/yy	4dd\yy	.	4.G\	.	8ryy	.	4d\]	4dd\yy	.	8G]	.	8B-\]	.	2.B-/	.	4dd\yy	.	4dd\	.	8G\L]	8B-\L]	2.B-/yy	.	2.B-/	4dd\yy	4dd\
.	.	8F\yy	.	8A\yy	.	.	.	.	.	.	8A\yy	.	.	.	.	8F\	.	8A\	.	.	.	.	.	.	.	8F\J	8A\J	.	.	.	.	.
2E-X\	6:5	2E-X\yy	.	2G/yy	.	.	2ee-X\yy	.	.	.	2G/yy	.	2g\	2ee-X\yy	.	2E-X\	.	2G/	.	.	.	2ee-X\yy	.	2ee-X\	.	2E-X\	2G/	.	.	.	2ee-X\yy	2ee-X\
.	.	.	.	.	.	.	.	.	8F\	.	.	.	.	.	.	.	.	.	.	.	.	.	.	.	.	.	.	.	.	.	.	.
.	.	.	.	.	.	.	.	.	4E-X\	.	.	.	.	.	.	.	.	.	.	.	.	.	.	.	.	.	.	.	.	.	.	.
!	!	!	!	!	!	!	!	!	!	!	!	!	!	!	!	!	!	!	!	!	!	!	!	!	!	!	!	!LO:TX:t=P:problem:mixed beam	!	!LO:TX:t=P:problem:mixed beam	!	!
4E-\	.	8E-\yy	.	8c\yy	.	8G/yy	8ee-\yy	-ri-	8E-\	.	8c\yy	.	8g\	8ee-\yy	-ri-	8E-\	.	8c\	.	8G/	.	8ee-\yy	-ri-	8ee-\	-ri-	8E-\L	8c\L	8G/Lyy	.	8G/L	4ee-\yy	4ee-\
.	.	8E-\yy	.	8c\yy	.	8g\yy	8ee-\yy	-a	8E-\	.	8c\yy	.	8g\	8ee-\yy	-a	8E-\	.	8c\	.	8g\	.	8ee-\yy	-a	8ee-\	-a	8E-\J	8c\J	8g\Jyy	.	8g\J	.	.
4F\	6 5	4F\yy	.	4c\yy	.	4a\yy	2dd\yy	tu-	4F\	.	4c\yy	.	4a\	2dd\yy	tu-	4F\	.	4c\	.	4a\	.	2dd\yy	tu-	2dd\	tu-	4F\	4c\	4a\yy	.	4a\	2dd\yy	2dd\
4G\	n	4G\yy	.	4Bn\yy	.	4g\yy	.	.	4G\	.	4Bn\yy	.	4g\	.	.	4G\	.	4Bn\	.	4g\	.	.	.	.	.	4G\	4Bn\	4g\yy	.	4g\	.	.
2C\	.	4C/yy	.	2c\yy	.	4.g\yy	2cc\yy	-a	2C\	.	2c\yy	.	4.g\	2cc\yy	-a	4C/	.	2c\	.	4.g\	.	2cc\yy	-a	2cc\	-a	2C\	2c\	4.g\yy	.	4.g\	2cc\yy	2cc\
.	.	[y4c\yy	.	.	.	.	.	.	.	.	.	.	.	.	.	[4c\	.	.	.	.	.	.	.	.	.	.	.	.	.	.	.	.
.	.	.	.	.	.	8f\yy	.	.	.	.	.	.	8f\	.	.	.	.	.	.	8f\	.	.	.	.	.	.	.	8f\yy	.	8f\	.	.
!!pagebreak:original
=11	=11	=11	=11	=11	=11	=11	=11	=11	=11	=11	=11	=11	=11	=11	=11	=11	=11	=11	=11	=11	=11	=11	=11	=11	=11	=11	=11	=11	=11	=11	=11	=11
!	!	!	!	!	!	!	!LO:TX:a:t=col canto 2 del coro 1.	!	!	!	!	!	!	!	!	!	!	!	!	!	!	!	!	!	!	!	!	!LO:TX:t=P:problem:zamazana pauza - korekta	!	!	!	!
4c\	.	8c\L]yy	.	4ryy	.	4.e\yy	4.c/yy	glo-	4.c\	.	4ryy	.	4.e\yy	4.c/yy	glo-	8c\]	.	4r	.	4.e\	.	4.c/	glo-	2.cc\	glo-	4C/	4r	4.e\yy	.	4.e\	2.cc\yy	2.cc\
.	.	8B-\Jyy	.	.	.	.	.	.	.	.	.	.	.	.	.	8B-\	.	.	.	.	.	.	.	.	.	.	.	.	.	.	.	.
2A\	.	4.A\yy	.	4.c\yy	glo-	.	.	.	.	.	4.c\yy	glo-	.	.	.	4.A\	.	4.c\	glo-	.	.	.	.	.	.	4.AA/	4.c\	.	.	.	.	.
.	.	.	.	.	.	8d\yy	8d/yy	.	8B-\	.	.	.	8d\yy	8d/yy	.	.	.	.	.	8d\	.	8d/	.	.	.	.	.	8d\yy	.	8d\	.	.
.	.	.	.	.	.	4.c\yy	4e/yy	.	4.A\	.	.	.	4.c\yy	4e/yy	.	.	.	.	.	4.c\	.	4e/	.	.	.	.	.	4.c\yy	.	4.c\	.	.
.	.	8G\yy	.	8B-\yy	.	.	.	.	.	.	8B-\yy	.	.	.	.	8G\	.	8B-\	.	.	.	.	.	.	.	8GG/	8B-\	.	.	.	.	.
4F\	.	4.F\yy	.	4.A\yy	.	.	4f/yy	-ri-	.	.	4.A\yy	.	.	4f/yy	-ri-	4.F\	.	4.A\	.	.	.	4f/	-ri-	4cc\	-ri-	4FF/	4.A\	.	.	.	4cc\yy	4cc\
.	.	.	.	.	.	8B-/yy	.	.	8G\	.	.	.	8B-/yy	.	.	.	.	.	.	8B-/	.	.	.	.	.	.	.	8B-\yy	.	8B-\	.	.
4F\	.	.	.	.	.	4A/yy	4f/yy	-a	4.F\	.	.	.	4A/yy	4f/yy	-a	.	.	.	.	4A/	.	4f/	-a	4cc\	-a	4F\	.	4A/yy	.	4A/	4cc\yy	4cc\
!	!	!	!	!LO:N:vis=8	!	!	!	!	!	!	!LO:N:vis=8	!	!	!	!	!	!	!LO:N:vis=8	!	!	!	!	!	!	!	!	!LO:N:vis=8	!	!	!	!	!
.	.	8E\yy	.	16G/LLyy	.	.	.	.	.	.	16G/LLyy	.	.	.	.	8E\	.	16G/LL	.	.	.	.	.	.	.	.	16G/LL	.	.	.	.	.
!	!	!	!	!LO:N:vis=8	!	!	!	!	!	!	!LO:N:vis=8	!	!	!	!	!	!	!LO:N:vis=8	!	!	!	!	!	!	!	!	!LO:N:vis=8	!	!	!	!	!
.	.	.	.	16F/JJyy	.	.	.	.	.	.	16F/JJyy	.	.	.	.	.	.	16F/JJ	.	.	.	.	.	.	.	.	16F/JJ	.	.	.	.	.
!	!	!	!	!	!	!	!	!	!	!	!	!	!	!	!	!	!	!	!	!	!	!LO:TX:a:t=col 1mo	!	!	!	!	!	!	!	!	!	!
2D\	.	4.D\yy	.	4G\yy	.	8a\Lyy	4.ff\yy	glo-	.	.	4G\yy	.	8a\Lyy	4.ff\yy	glo-	4.D\	.	4G\	.	8a\L	.	4.ff\yy	glo-	4.ff\	glo-	4.D\	4G/	4a\yy	.	4a\	4.ff\yy	4.ff\
.	.	.	.	.	.	8g\Jyy	.	.	8E\	.	.	.	8g\Jyy	.	.	.	.	.	.	8g\J	.	.	.	.	.	.	.	.	.	.	.	.
.	.	.	.	4A\yy	.	4.f\yy	.	.	4.D\	.	4A\yy	.	4.f\yy	.	.	.	.	4A\	.	4.f\	.	.	.	.	.	.	2A\	4.f\yy	.	4.f\	.	.
.	.	8C/yy	.	.	.	.	8ee\yy	.	.	.	.	.	.	8ee\yy	.	8C/	.	.	.	.	.	8ee\yy	.	8ee\	.	8C\	.	.	.	.	8ee\yy	8ee\
[4BB-\	.	[y4BB-/yy	.	[y4B-\yy	.	.	[y4dd\yy	.	.	.	[y4B-\yy	.	.	[y4dd\yy	.	[>4BB-/	.	[4B-\	.	.	.	[y4dd\yy	.	[4dd\	.	[4BB-\	.	.	.	.	[y4dd\yy	[4dd\
.	.	.	.	.	.	8e\yy	.	.	8C\	.	.	.	8e\yy	.	.	.	.	.	.	8e\	.	.	.	.	.	.	.	8e\yy	.	8e\	.	.
=12	=12	=12	=12	=12	=12	=12	=12	=12	=12	=12	=12	=12	=12	=12	=12	=12	=12	=12	=12	=12	=12	=12	=12	=12	=12	=12	=12	=12	=12	=12	=12	=12
!	!	!	!	!	!	!	!	!	!LO:TX:a:t=col Basso del Coro 1	!	!	!	!	!	!	!	!	!	!	!	!	!	!	!	!	!	!	!	!	!	!	!
4BB-\]	.	8BB-/L]yy	.	4B-\]yy	.	4.d\yy	4dd\]yy	.	8BB-/Lyy	.	4B-\]yy	.	4.d\yy	4dd\]yy	.	8BB-/L]	.	4B-\]	.	4.d\	.	4dd\]yy	.	4dd\]	.	4BB-\]	8B-\L	2d\yy	.	2d\	4dd\]yy	4dd\]
.	.	16AA/Lyy	.	.	.	.	.	.	16AA/Lyy	.	.	.	.	.	.	16AA/L	.	.	.	.	.	.	.	.	.	.	8B-\J	.	.	.	.	.
.	.	16GG/JJyy	.	.	.	.	.	.	16GG/JJyy	.	.	.	.	.	.	16GG/JJ	.	.	.	.	.	.	.	.	.	.	.	.	.	.	.	.
2FF#X/	.	2FF#X/yy	.	2A\yy	.	.	4dd\yy	-ri-	2FF#X/yy	.	2A\yy	.	.	4dd\yy	-ri-	2FF#X/	.	2A\	.	.	.	4dd\yy	-ri-	4dd\	-ri-	2FF#X/	2A\	.	.	.	4dd\yy	4dd\
.	.	.	.	.	.	8d\yy	.	.	.	.	.	.	8d\yy	.	.	.	.	.	.	8d\	.	.	.	.	.	.	.	.	.	.	.	.
.	.	.	.	.	.	4a\yy	2dd\yy	-a	.	.	.	.	4a\yy	2dd\yy	-a	.	.	.	.	4a\	.	2dd\yy	-a	2dd\	-a	.	.	4a\yy	.	4a\	2dd\yy	2dd\
4GG/	.	8GG/yy	.	8B-\yy	-ri-	2g\yy	.	.	8GG/yy	.	8B-\yy	-ri-	2g\yy	.	.	8GG/	.	8B-\	-ri-	2g\	.	.	.	.	.	4GG/	8B-\L	2g\yy	.	2g\	.	.
.	.	8GG/yy	.	8B-\yy	-a	.	.	.	8GG/yy	.	8B-\yy	-a	.	.	.	8GG/	.	8B-\	-a	.	.	.	.	.	.	.	8B-\J	.	.	.	.	.
[>1AA	7 #:6 4	[y1AAyy	.	[y1Ayy	tu-	.	2cc#X\yy	tu-	[y1AAyy	.	[y1Ayy	tu-	.	2cc#X\yy	tu-	[>1AA	.	[1A	tu-	.	.	2cc#X\yy	tu-	2cc#X\	tu-	[>1AA	[1A	.	.	.	2cc#X\yy	2cc#X\
.	.	.	.	.	.	4g\yy	.	.	.	.	.	.	4g\yy	.	.	.	.	.	.	4g\	.	.	.	.	.	.	.	4g\yy	.	4g\	.	.
.	.	.	.	.	.	2f\yy	[y2dd\yy	.	.	.	.	.	2f\yy	[y2dd\yy	.	.	.	.	.	2f\	.	[y2dd\yy	.	[2dd\	.	.	.	2f\yy	.	2f\	[y2dd\yy	[2dd\
=13	=13	=13	=13	=13	=13	=13	=13	=13	=13	=13	=13	=13	=13	=13	=13	=13	=13	=13	=13	=13	=13	=13	=13	=13	=13	=13	=13	=13	=13	=13	=13	=13
1AA]	5 4:_ #	1AA]yy	.	1A]yy	.	1eyy	2dd\]yy	.	1AA]yy	.	1A]yy	.	1eyy	2dd\]yy	.	1AA]	.	1A]	.	1e	.	2dd\]yy	.	2dd\]	.	1AA]	1A]	1eyy	.	1e	2dd\]yy	2dd\]
.	.	.	.	.	.	.	2cc#X\yy	.	.	.	.	.	.	2cc#X\yy	.	.	.	.	.	.	.	2cc#X\yy	.	2cc#X\	.	.	.	.	.	.	2cc#X\yy	2cc#X\
1D;	#	1D;yy	.	1A;yy	-a	1d;yy	1dd;yy	-a.	1D;yy	.	1A;yy	-a	1d;yy	1dd;yy	-a.	1D;	.	1A;	-a	1d;	.	1dd;yy	-a.	1dd;	-a.	1D;	1A;	1f#;	.	1d;	1dd;yy	1dd;
=14||	=14||	=14||	=14||	=14||	=14||	=14||	=14||	=14||	=14||	=14||	=14||	=14||	=14||	=14||	=14||	=14||	=14||	=14||	=14||	=14||	=14||	=14||	=14||	=14||	=14||	=14||	=14||	=14||	=14||	=14||	=14||	=14||
*clefF4	*	*clefF4	*	*clefC4	*	*clefC3	*clefC1	*	*clefF4	*	*clefC4	*	*clefC3	*clefC1	*	*clefF4	*	*clefC4	*	*clefC3	*	*clefC1	*	*clefC1	*	*clefF4	*clefC4	*clefC3	*	*clefC3	*clefG2	*clefG2
*k[b-]	*	*k[b-]	*	*k[b-]	*	*k[b-]	*k[b-]	*	*k[b-]	*	*k[b-]	*	*k[b-]	*k[b-]	*	*k[b-]	*	*k[b-]	*	*k[b-]	*	*k[b-]	*	*k[b-]	*	*k[b-]	*k[b-]	*k[b-]	*	*k[b-]	*k[b-]	*k[b-]
!	!	!	!	!	!	!	!	!	!	!	!	!	!	!	!	!	!	!	!	!	!	!	!	!	!	!	!	!	!	!	!	!
!!LO:TX:b:t=Decimi toni
1D	.	0r	.	0r	.	0r	0r	.	0r	.	0r	.	0r	0r	.	0r	.	0r	.	0r	.	0r	.	0r	.	2.D\	2.A\	2.f\	.	2.f\	2.dd\	2.dd\
.	.	.	.	.	.	.	.	.	.	.	.	.	.	.	.	.	.	.	.	.	.	.	.	.	.	4D\	4A\	4f\	.	4f\	4dd\	4dd\
2BB-X\	.	.	.	.	.	.	.	.	.	.	.	.	.	.	.	.	.	.	.	.	.	.	.	.	.	2BB-/	8B-\	8d\	.	8f\	8dd\	8ff\
.	.	.	.	.	.	.	.	.	.	.	.	.	.	.	.	.	.	.	.	.	.	.	.	.	.	.	4B-\	4d\	.	4f\	4ff\	4dd\
.	.	.	.	.	.	.	.	.	.	.	.	.	.	.	.	.	.	.	.	.	.	.	.	.	.	.	8B-\	8d\	.	8f\	8dd\	8ff\
2F\	.	.	.	.	.	.	.	.	.	.	.	.	.	.	.	.	.	.	.	.	.	.	.	.	.	2F\	8A\	8c\	.	8f\	8ff\	8aa\
.	.	.	.	.	.	.	.	.	.	.	.	.	.	.	.	.	.	.	.	.	.	.	.	.	.	.	4A\	4c\	.	4c\	4aa\	4ff\
.	.	.	.	.	.	.	.	.	.	.	.	.	.	.	.	.	.	.	.	.	.	.	.	.	.	.	8A\	8c\	.	8f\	8ff\	8aa\
!!pagebreak:original
=15	=15	=15	=15	=15	=15	=15	=15	=15	=15	=15	=15	=15	=15	=15	=15	=15	=15	=15	=15	=15	=15	=15	=15	=15	=15	=15	=15	=15	=15	=15	=15	=15
2F\	.	0r	.	0r	.	0r	0r	.	0r	.	0r	.	0r	0r	.	0r	.	0r	.	0r	.	0r	.	0r	.	2F\	2B-\	4g\	.	2d\	16bb-\LL	16gg\LL
.	.	.	.	.	.	.	.	.	.	.	.	.	.	.	.	.	.	.	.	.	.	.	.	.	.	.	.	.	.	.	16aa\	16ff\
.	.	.	.	.	.	.	.	.	.	.	.	.	.	.	.	.	.	.	.	.	.	.	.	.	.	.	.	.	.	.	16bb-\	16gg\
.	.	.	.	.	.	.	.	.	.	.	.	.	.	.	.	.	.	.	.	.	.	.	.	.	.	.	.	.	.	.	16ccc\JJ	16aa\JJ
.	.	.	.	.	.	.	.	.	.	.	.	.	.	.	.	.	.	.	.	.	.	.	.	.	.	.	.	4e\	.	.	8bb-\L	8gg\L
.	.	.	.	.	.	.	.	.	.	.	.	.	.	.	.	.	.	.	.	.	.	.	.	.	.	.	.	.	.	.	8bb-\J	8gg\J
2D\	.	.	.	.	.	.	.	.	.	.	.	.	.	.	.	.	.	.	.	.	.	.	.	.	.	2D\	4.F/	2d\	.	2f\	8aa\	8ff\
.	.	.	.	.	.	.	.	.	.	.	.	.	.	.	.	.	.	.	.	.	.	.	.	.	.	.	.	.	.	.	4ff\	4dd\
.	.	.	.	.	.	.	.	.	.	.	.	.	.	.	.	.	.	.	.	.	.	.	.	.	.	.	8E/	.	.	.	8aa\	8ff\
2E-X\	.	.	.	.	.	.	.	.	.	.	.	.	.	.	.	.	.	.	.	.	.	.	.	.	.	2E-X\	8G/	8B-/	.	8e-X\	8gg\	8gg\
.	.	.	.	.	.	.	.	.	.	.	.	.	.	.	.	.	.	.	.	.	.	.	.	.	.	.	4G/	4B-/	.	4e-\	4gg\	4ee-X\
.	.	.	.	.	.	.	.	.	.	.	.	.	.	.	.	.	.	.	.	.	.	.	.	.	.	.	8G/	8B-/	.	8e-\	8ee-X\	8gg\
2BB-\	.	.	.	.	.	.	.	.	.	.	.	.	.	.	.	.	.	.	.	.	.	.	.	.	.	2BB-/	2c\	2d\	.	2f\	16dd\LL	16ff\LL
.	.	.	.	.	.	.	.	.	.	.	.	.	.	.	.	.	.	.	.	.	.	.	.	.	.	.	.	.	.	.	16ee-X\	16gg\
.	.	.	.	.	.	.	.	.	.	.	.	.	.	.	.	.	.	.	.	.	.	.	.	.	.	.	.	.	.	.	16cc\	16ee-X\
.	.	.	.	.	.	.	.	.	.	.	.	.	.	.	.	.	.	.	.	.	.	.	.	.	.	.	.	.	.	.	16dd\JJ	16ff\JJ
.	.	.	.	.	.	.	.	.	.	.	.	.	.	.	.	.	.	.	.	.	.	.	.	.	.	.	.	.	.	.	16b-\LL	16dd\LL
.	.	.	.	.	.	.	.	.	.	.	.	.	.	.	.	.	.	.	.	.	.	.	.	.	.	.	.	.	.	.	16a\	16cc\
.	.	.	.	.	.	.	.	.	.	.	.	.	.	.	.	.	.	.	.	.	.	.	.	.	.	.	.	.	.	.	16b-\	16dd\
.	.	.	.	.	.	.	.	.	.	.	.	.	.	.	.	.	.	.	.	.	.	.	.	.	.	.	.	.	.	.	16g\JJ	16b-\JJ
=16	=16	=16	=16	=16	=16	=16	=16	=16	=16	=16	=16	=16	=16	=16	=16	=16	=16	=16	=16	=16	=16	=16	=16	=16	=16	=16	=16	=16	=16	=16	=16	=16
2FF/	.	0r	.	0r	.	0r	0r	.	0r	.	0r	.	0r	0r	.	0r	.	0r	.	1r	.	0r	.	0r	.	2FF/	2A\	2c\	.	2f\	8a/	8cc\
.	.	.	.	.	.	.	.	.	.	.	.	.	.	.	.	.	.	.	.	.	.	.	.	.	.	.	.	.	.	.	4f/	4a\
.	.	.	.	.	.	.	.	.	.	.	.	.	.	.	.	.	.	.	.	.	.	.	.	.	.	.	.	.	.	.	8a/	8cc\
!	!	!	!	!	!	!	!	!	!	!	!	!	!	!	!	!	!	!	!	!	!	!	!	!	!	!	!	!	!	!LO:TX:t=P:problem:mixed beam	!	!
8BB-/L	.	.	.	.	.	.	.	.	.	.	.	.	.	.	.	.	.	.	.	.	.	.	.	.	.	8BB-/L	8F/L	8d\L	.	8.f\L	8d/L	8.b-/L
8D/J	.	.	.	.	.	.	.	.	.	.	.	.	.	.	.	.	.	.	.	.	.	.	.	.	.	8D/J	8F/J	8d\J	.	.	8f/J	.
.	.	.	.	.	.	.	.	.	.	.	.	.	.	.	.	.	.	.	.	.	.	.	.	.	.	.	.	.	.	16B-/Jk	.	16f/Jk
4C/	.	.	.	.	.	.	.	.	.	.	.	.	.	.	.	.	.	.	.	.	.	.	.	.	.	4C/	4C/	4G/	.	4c/	4e/	4g/
2FF/	.	.	.	.	.	.	.	.	.	.	.	.	.	.	.	.	.	.	.	8a\	O-	.	.	.	.	2FF/	2F/	2F/	.	2c\	2f/	2a/
.	.	.	.	.	.	.	.	.	.	.	.	.	.	.	.	.	.	.	.	4f\	-san-	.	.	.	.	.	.	.	.	.	.	.
.	.	.	.	.	.	.	.	.	.	.	.	.	.	.	.	.	.	.	.	8a\	-na	.	.	.	.	.	.	.	.	.	.	.
*	*	*	*	*	*	*	*	*	*	*	*	*	*	*	*	*	*	*	*	*	*ij	*	*	*	*	*	*	*	*	*	*	*
4.C/	.	.	.	.	.	.	.	.	.	.	.	.	.	.	.	.	.	.	.	8g\	O-	.	.	.	.	4.C/	4E/	4.G/	.	4.c\	4.G/	4.c/
.	.	.	.	.	.	.	.	.	.	.	.	.	.	.	.	.	.	.	.	4e\	-san-	.	.	.	.	.	.	.	.	.	.	.
.	.	.	.	.	.	.	.	.	.	.	.	.	.	.	.	.	.	.	.	.	.	.	.	.	.	.	4G/	.	.	.	.	.
8GG/	.	.	.	.	.	.	.	.	.	.	.	.	.	.	.	.	.	.	.	8g\	-na	.	.	.	.	8GG/	.	8B-/	.	8d\	8B-/	8d/
!!pagebreak:original
=17	=17	=17	=17	=17	=17	=17	=17	=17	=17	=17	=17	=17	=17	=17	=17	=17	=17	=17	=17	=17	=17	=17	=17	=17	=17	=17	=17	=17	=17	=17	=17	=17
*	*	*	*	*	*	*	*	*	*	*	*	*	*	*	*	*	*	*	*	*	*Xij	*	*	*	*	*	*	*	*	*	*	*clefC3
2D\	.	0r	.	0r	.	0r	0r	.	0r	.	0r	.	0r	0r	.	0r	.	8d\	.	8f\	in	1r	.	1r	.	2BB-/	2D/	4B-/	.	2d\	4B-/	2d\
.	.	.	.	.	.	.	.	.	.	.	.	.	.	.	.	.	.	4A\	.	8f\	ex-	.	.	.	.	.	.	.	.	.	.	.
.	.	.	.	.	.	.	.	.	.	.	.	.	.	.	.	.	.	.	.	4f\	-cel-	.	.	.	.	.	.	4d\	.	.	4d/	.
.	.	.	.	.	.	.	.	.	.	.	.	.	.	.	.	.	.	8d\	.	.	.	.	.	.	.	.	.	.	.	.	.	.
8C/	.	.	.	.	.	.	.	.	.	.	.	.	.	.	.	.	.	8c\	.	8e\	-sis	.	.	.	.	8C/	8A\	8G/	.	4.e\	8G/	4.e\
4AA/	.	.	.	.	.	.	.	.	.	.	.	.	.	.	.	.	.	4A\	.	4c\	in	.	.	.	.	4AA/	4A\	4c/	.	.	4c/	.
8AA/	.	.	.	.	.	.	.	.	.	.	.	.	.	.	.	.	.	8c\	.	8e\	ex-	.	.	.	.	8AA/	8A\	8c/	.	8a\	8c/	8a\
2BB-/	.	.	.	.	.	.	.	.	.	.	.	.	.	.	.	.	.	8B-\	.	(4d\	-cel-	2r	.	8dd\	O-	2BB-/	2E/	4.d\	f	2f\	4.d/	2f\
.	.	.	.	.	.	.	.	.	.	.	.	.	.	.	.	.	.	8B-\	.	.	.	.	.	4b-\	-san-	.	.	.	.	.	.	.
.	.	.	.	.	.	.	.	.	.	.	.	.	.	.	.	.	.	4B-\	.	4f\)	.	.	.	.	.	.	.	.	.	.	.	.
.	.	.	.	.	.	.	.	.	.	.	.	.	.	.	.	.	.	.	.	.	.	.	.	8dd\	-na	.	.	8B-/	.	.	8B-/	.
*	*	*	*	*	*	*	*	*	*	*	*	*	*	*	*	*	*	*	*	*	*	*	*	*	*ij	*	*	*	*	*	*	*
2FF/	.	.	.	.	.	.	.	.	.	.	.	.	.	.	.	.	.	2F/	.	2f\	-sis	8a\	O-	8cc\	O-	2FF/	2F/	2c\	.	2f\	2c/	2f\
.	.	.	.	.	.	.	.	.	.	.	.	.	.	.	.	.	.	.	.	.	.	4f\	-san-	4a\	-san-	.	.	.	.	.	.	.
.	.	.	.	.	.	.	.	.	.	.	.	.	.	.	.	.	.	.	.	.	.	8a\	-na	8cc\	-na	.	.	.	.	.	.	.
*	*	*	*	*	*	*	*	*	*	*	*	*	*	*	*	*	*	*	*	*	*	*	*	*	*Xij	*	*	*	*	*	*	*
=18	=18	=18	=18	=18	=18	=18	=18	=18	=18	=18	=18	=18	=18	=18	=18	=18	=18	=18	=18	=18	=18	=18	=18	=18	=18	=18	=18	=18	=18	=18	=18	=18
4GG/	.	0r	.	0r	.	0r	0r	.	0r	.	0r	.	0r	0r	.	0r	.	4G/	.	1r	.	4.g\	in	4.b-\	in	0r	0r	0r	.	0r	0r	0r
8GG/	.	.	.	.	.	.	.	.	.	.	.	.	.	.	.	.	.	8G/	.	.	.	.	.	.	.	.	.	.	.	.	.	.
8AA/	.	.	.	.	.	.	.	.	.	.	.	.	.	.	.	.	.	8A/	.	.	.	8f\	ex-	8a\	ex-	.	.	.	.	.	.	.
4BB-/	.	.	.	.	.	.	.	.	.	.	.	.	.	.	.	.	.	4B-\	.	.	.	(4f\	-cel-	(4a\	-cel-	.	.	.	.	.	.	.
4C/	.	.	.	.	.	.	.	.	.	.	.	.	.	.	.	.	.	4c\	.	.	.	4e\)	-sis	4g\)	.	.	.	.	.	.	.	.
*	*	*	*	*	*	*	*	*	*	*	*	*	*	*	*	*	*	*	*	*	*	*	*ij	*	*	*	*	*	*	*	*	*
2F\	.	.	.	.	.	.	.	.	.	.	.	.	.	.	.	.	.	2F/	.	8f\	.	8f/	O-	2a\	-sis	.	.	.	.	.	.	.
.	.	.	.	.	.	.	.	.	.	.	.	.	.	.	.	.	.	.	.	4c\	.	4a\	-san-	.	.	.	.	.	.	.	.	.
.	.	.	.	.	.	.	.	.	.	.	.	.	.	.	.	.	.	.	.	8f\	.	8a\	-na	.	.	.	.	.	.	.	.	.
!	!	!	!	!	!	!	!	!	!	!	!	!	!	!	!	!	!	!	!	!	!	!LO:TX:t=P:problem:korekta z 4a\	!	!	!	!	!	!	!	!	!	!
2C\	.	.	.	.	.	.	.	.	.	.	.	.	.	.	.	.	.	2r	.	8e-X\	.	4cc\	in	2r	.	.	.	.	.	.	.	.
.	.	.	.	.	.	.	.	.	.	.	.	.	.	.	.	.	.	.	.	4c\	.	.	.	.	.	.	.	.	.	.	.	.
.	.	.	.	.	.	.	.	.	.	.	.	.	.	.	.	.	.	.	.	.	.	[4cc\	ex-	.	.	.	.	.	.	.	.	.
.	.	.	.	.	.	.	.	.	.	.	.	.	.	.	.	.	.	.	.	8e-\	.	.	.	.	.	.	.	.	.	.	.	.
=19	=19	=19	=19	=19	=19	=19	=19	=19	=19	=19	=19	=19	=19	=19	=19	=19	=19	=19	=19	=19	=19	=19	=19	=19	=19	=19	=19	=19	=19	=19	=19	=19
*	*	*	*	*	*	*	*	*	*	*	*	*	*	*	*	*	*	*	*	*	*	*	*	*	*	*	*	*	*	*	*	*
2D\	7:6	0r	.	0r	.	0r	0r	.	0r	.	0r	.	0r	0r	.	0r	.	8f\	.	4.d\	.	4cc\]	.	1r	.	0r	0r	0r	.	0r	0r	0r
.	.	.	.	.	.	.	.	.	.	.	.	.	.	.	.	.	.	4d\	.	.	.	.	.	.	.	.	.	.	.	.	.	.
.	.	.	.	.	.	.	.	.	.	.	.	.	.	.	.	.	.	.	.	.	.	2b-\	-cel-	.	.	.	.	.	.	.	.	.
.	.	.	.	.	.	.	.	.	.	.	.	.	.	.	.	.	.	8f\	.	8c\	.	.	.	.	.	.	.	.	.	.	.	.
2C\	7 -:6 x	.	.	.	.	.	.	.	.	.	.	.	.	.	.	.	.	8e-X\	.	2c\	.	.	.	.	.	.	.	.	.	.	.	.
.	.	.	.	.	.	.	.	.	.	.	.	.	.	.	.	.	.	4c\	.	.	.	.	.	.	.	.	.	.	.	.	.	.
.	.	.	.	.	.	.	.	.	.	.	.	.	.	.	.	.	.	.	.	.	.	4a\	-sis	.	.	.	.	.	.	.	.	.
*	*	*	*	*	*	*	*	*	*	*	*	*	*	*	*	*	*	*	*	*	*	*	*Xij	*	*	*	*	*	*	*	*	*
.	.	.	.	.	.	.	.	.	.	.	.	.	.	.	.	.	.	8e-\	.	.	.	.	.	.	.	.	.	.	.	.	.	.
2B-X\	.	.	.	.	.	.	.	.	.	.	.	.	.	.	.	.	.	8d\	.	2B-\	.	8dd\	O-	8ff\	O-	.	.	.	.	.	.	.
.	.	.	.	.	.	.	.	.	.	.	.	.	.	.	.	.	.	8d\	.	.	.	4b-\	-san-	4dd\	-san-	.	.	.	.	.	.	.
.	.	.	.	.	.	.	.	.	.	.	.	.	.	.	.	.	.	4B-\	.	.	.	.	.	.	.	.	.	.	.	.	.	.
.	.	.	.	.	.	.	.	.	.	.	.	.	.	.	.	.	.	.	.	.	.	8dd\	-na	8ff\	-na	.	.	.	.	.	.	.
*	*	*	*	*	*	*	*	*	*	*	*	*	*	*	*	*	*	*	*	*	*	*	*ij	*	*ij	*	*	*	*	*	*	*
2c\	.	.	.	.	.	.	.	.	.	.	.	.	.	.	.	.	.	2c\	.	2r	.	8cc\	O-	8ee-X\	O-	.	.	.	.	.	.	.
.	.	.	.	.	.	.	.	.	.	.	.	.	.	.	.	.	.	.	.	.	.	4ee-X\	-san-	4cc\	-san-	.	.	.	.	.	.	.
.	.	.	.	.	.	.	.	.	.	.	.	.	.	.	.	.	.	.	.	.	.	8cc\	-na	8ff\	-na	.	.	.	.	.	.	.
*	*	*	*	*	*	*	*	*	*	*	*	*	*	*	*	*	*	*	*	*	*	*	*Xij	*	*Xij	*	*	*	*	*	*	*
!!pagebreak:original
=20	=20	=20	=20	=20	=20	=20	=20	=20	=20	=20	=20	=20	=20	=20	=20	=20	=20	=20	=20	=20	=20	=20	=20	=20	=20	=20	=20	=20	=20	=20	=20	=20
*	*	*	*	*	*	*	*	*	*	*	*	*	*	*	*	*	*	*	*	*	*	*	*	*	*	*	*	*	*	*	*	*clefG2
2G\	.	0r	.	0r	.	0r	0r	.	0r	.	0r	.	0r	0r	.	0r	.	0r	.	8g\	.	8b-\	.	4.dd\	in	0r	0r	0r	.	0r	0r	0r
.	.	.	.	.	.	.	.	.	.	.	.	.	.	.	.	.	.	.	.	4d\	.	8b-\	.	.	.	.	.	.	.	.	.	.
.	.	.	.	.	.	.	.	.	.	.	.	.	.	.	.	.	.	.	.	.	.	4b-\	.	.	.	.	.	.	.	.	.	.
.	.	.	.	.	.	.	.	.	.	.	.	.	.	.	.	.	.	.	.	8g\	.	.	.	8dd\	ex-	.	.	.	.	.	.	.
2D\	.	.	.	.	.	.	.	.	.	.	.	.	.	.	.	.	.	.	.	8f\	.	4a\	.	4ff\	-cel-	.	.	.	.	.	.	.
.	.	.	.	.	.	.	.	.	.	.	.	.	.	.	.	.	.	.	.	4c\	.	.	.	.	.	.	.	.	.	.	.	.
.	.	.	.	.	.	.	.	.	.	.	.	.	.	.	.	.	.	.	.	.	.	8f\	.	4ff\	-sis	.	.	.	.	.	.	.
.	.	.	.	.	.	.	.	.	.	.	.	.	.	.	.	.	.	.	.	8f\	.	8a\	.	.	.	.	.	.	.	.	.	.
4E\	.	.	.	.	.	.	.	.	.	.	.	.	.	.	.	.	.	.	.	8e\	.	8g\L	.	1r	.	.	.	.	.	.	.	.
.	.	.	.	.	.	.	.	.	.	.	.	.	.	.	.	.	.	.	.	8c\	.	8e\J	.	.	.	.	.	.	.	.	.	.
4F\	.	.	.	.	.	.	.	.	.	.	.	.	.	.	.	.	.	.	.	2f\	.	8a\L	.	.	.	.	.	.	.	.	.	.
.	.	.	.	.	.	.	.	.	.	.	.	.	.	.	.	.	.	.	.	.	.	16g\L	.	.	.	.	.	.	.	.	.	.
.	.	.	.	.	.	.	.	.	.	.	.	.	.	.	.	.	.	.	.	.	.	16f\JJ	.	.	.	.	.	.	.	.	.	.
2c\	4:3	.	.	.	.	.	.	.	.	.	.	.	.	.	.	.	.	.	.	.	.	4.g\	.	.	.	.	.	.	.	.	.	.
.	.	.	.	.	.	.	.	.	.	.	.	.	.	.	.	.	.	.	.	4e\	.	.	.	.	.	.	.	.	.	.	.	.
.	.	.	.	.	.	.	.	.	.	.	.	.	.	.	.	.	.	.	.	.	.	8g\	.	.	.	.	.	.	.	.	.	.
=21	=21	=21	=21	=21	=21	=21	=21	=21	=21	=21	=21	=21	=21	=21	=21	=21	=21	=21	=21	=21	=21	=21	=21	=21	=21	=21	=21	=21	=21	=21	=21	=21
2F\	.	0r	.	0r	.	0r	0r	.	0r	.	0r	.	0r	0r	.	0r	.	2F/	O-	2f\	.	8cc\	.	8a\	O-	0r	0r	0r	.	0r	0r	0r
.	.	.	.	.	.	.	.	.	.	.	.	.	.	.	.	.	.	.	.	.	.	4a\	.	4f/	-san-	.	.	.	.	.	.	.
.	.	.	.	.	.	.	.	.	.	.	.	.	.	.	.	.	.	.	.	.	.	8cc\	.	8a\	-na	.	.	.	.	.	.	.
*	*	*	*	*	*	*	*	*	*	*	*	*	*	*	*	*	*	*	*	*	*	*	*	*	*ij	*	*	*	*	*	*	*
2C/	.	.	.	.	.	.	.	.	.	.	.	.	.	.	.	.	.	2C/	-san-	8e\	.	4.cc\	.	8g\	O-	.	.	.	.	.	.	.
.	.	.	.	.	.	.	.	.	.	.	.	.	.	.	.	.	.	.	.	4c\	.	.	.	4e/	-san-	.	.	.	.	.	.	.
.	.	.	.	.	.	.	.	.	.	.	.	.	.	.	.	.	.	.	.	8e\	.	8cc\	.	8g\	-na	.	.	.	.	.	.	.
*	*	*	*	*	*	*	*	*	*	*	*	*	*	*	*	*	*	*	*	*	*	*	*	*	*Xij	*	*	*	*	*	*	*
2D\	.	.	.	.	.	.	.	.	.	.	.	.	.	.	.	.	.	2D/	-na	8d\	.	4a\	.	8f\	in	.	.	.	.	.	.	.
.	.	.	.	.	.	.	.	.	.	.	.	.	.	.	.	.	.	.	.	4A\	.	.	.	8f\	ex-	.	.	.	.	.	.	.
.	.	.	.	.	.	.	.	.	.	.	.	.	.	.	.	.	.	.	.	.	.	4ee\	.	4a\	-cel-	.	.	.	.	.	.	.
.	.	.	.	.	.	.	.	.	.	.	.	.	.	.	.	.	.	.	.	8d\	.	.	.	.	.	.	.	.	.	.	.	.
*	*	*	*	*	*	*	*	*	*	*	*	*	*	*	*	*	*	*	*ij	*	*	*	*	*	*	*	*	*	*	*	*	*
2A\	.	.	.	.	.	.	.	.	.	.	.	.	.	.	.	.	.	2A\	O-	4.e\	.	8cc\	.	2a\	-sis	.	.	.	.	.	.	.
.	.	.	.	.	.	.	.	.	.	.	.	.	.	.	.	.	.	.	.	.	.	8a\	.	.	.	.	.	.	.	.	.	.
.	.	.	.	.	.	.	.	.	.	.	.	.	.	.	.	.	.	.	.	.	.	4cc\	.	.	.	.	.	.	.	.	.	.
.	.	.	.	.	.	.	.	.	.	.	.	.	.	.	.	.	.	.	.	8f\	.	.	.	.	.	.	.	.	.	.	.	.
=22	=22	=22	=22	=22	=22	=22	=22	=22	=22	=22	=22	=22	=22	=22	=22	=22	=22	=22	=22	=22	=22	=22	=22	=22	=22	=22	=22	=22	=22	=22	=22	=22
2B-X\	.	0r	.	0r	.	0r	0r	.	0r	.	0r	.	0r	0r	.	0r	.	2B-X\	-san-	4f\	.	8b-\	.	8dd\	O-	0r	0r	0r	.	0r	0r	0r
.	.	.	.	.	.	.	.	.	.	.	.	.	.	.	.	.	.	.	.	.	.	4dd\	.	4b-\	-san-	.	.	.	.	.	.	.
.	.	.	.	.	.	.	.	.	.	.	.	.	.	.	.	.	.	.	.	4f\	.	.	.	.	.	.	.	.	.	.	.	.
.	.	.	.	.	.	.	.	.	.	.	.	.	.	.	.	.	.	.	.	.	.	8b-\	.	8dd\	-na	.	.	.	.	.	.	.
*	*	*	*	*	*	*	*	*	*	*	*	*	*	*	*	*	*	*	*	*	*	*	*	*	*ij	*	*	*	*	*	*	*
2F\	.	.	.	.	.	.	.	.	.	.	.	.	.	.	.	.	.	2F/	-na	2r	.	8a\	.	8cc\	O-	.	.	.	.	.	.	.
*	*	*	*	*	*	*	*	*	*	*	*	*	*	*	*	*	*	*	*Xij	*	*	*	*	*	*	*	*	*	*	*	*	*
.	.	.	.	.	.	.	.	.	.	.	.	.	.	.	.	.	.	.	.	.	.	8a\	.	4a\	-san-	.	.	.	.	.	.	.
.	.	.	.	.	.	.	.	.	.	.	.	.	.	.	.	.	.	.	.	.	.	4a\	.	.	.	.	.	.	.	.	.	.
.	.	.	.	.	.	.	.	.	.	.	.	.	.	.	.	.	.	.	.	.	.	.	.	8cc\	-na	.	.	.	.	.	.	.
2G\	.	.	.	.	.	.	.	.	.	.	.	.	.	.	.	.	.	2G/	.	8g\	.	2g\	.	8b-\	O-	.	.	.	.	.	.	.
.	.	.	.	.	.	.	.	.	.	.	.	.	.	.	.	.	.	.	.	4d\	.	.	.	4b-\	-san-	.	.	.	.	.	.	.
.	.	.	.	.	.	.	.	.	.	.	.	.	.	.	.	.	.	.	.	8g\	.	.	.	8b-\	-na	.	.	.	.	.	.	.
!	!	!	!	!	!	!	!	!	!	!	!	!	!	!	!	!	!	!	!	!	!	!	!	!LO:TX:t=P:problem:niewłaściwy układ rytmiczny, nie da się podłożyć dobrze tekstu. Powinno być 8a\ (in) 8a\ (ex-) 4a\ (-cel-) 2g\ (-sis)	!	!	!	!	!	!	!	!
2D\	.	.	.	.	.	.	.	.	.	.	.	.	.	.	.	.	.	4d\	.	8f\	.	2r	.	8a\	O-	.	.	.	.	.	.	.
.	.	.	.	.	.	.	.	.	.	.	.	.	.	.	.	.	.	.	.	4d\	.	.	.	4a\	-san-	.	.	.	.	.	.	.
!	!	!	!	!	!	!	!	!	!	!	!	!	!	!	!	!	!	!LO:TX:t=P:problem:korekta z 4E/	!	!	!	!	!	!	!	!	!	!	!	!	!	!
.	.	.	.	.	.	.	.	.	.	.	.	.	.	.	.	.	.	4D/	.	.	.	.	.	.	.	.	.	.	.	.	.	.
.	.	.	.	.	.	.	.	.	.	.	.	.	.	.	.	.	.	.	.	8f\	.	.	.	8a\	-na	.	.	.	.	.	.	.
*	*	*	*	*	*	*	*	*	*	*	*	*	*	*	*	*	*	*	*	*	*	*	*	*	*Xij	*	*	*	*	*	*	*
!!pagebreak:original
=23	=23	=23	=23	=23	=23	=23	=23	=23	=23	=23	=23	=23	=23	=23	=23	=23	=23	=23	=23	=23	=23	=23	=23	=23	=23	=23	=23	=23	=23	=23	=23	=23
2E-X\	.	0r	.	0r	.	0r	0r	.	0r	.	0r	.	0r	0r	.	0r	.	2E-X/	.	4c/	.	8ee-X\	.	2g\	.	0r	0r	0r	.	0r	0r	0r
.	.	.	.	.	.	.	.	.	.	.	.	.	.	.	.	.	.	.	.	.	.	4b-\	.	.	.	.	.	.	.	.	.	.
.	.	.	.	.	.	.	.	.	.	.	.	.	.	.	.	.	.	.	.	8G/	.	.	.	.	.	.	.	.	.	.	.	.
.	.	.	.	.	.	.	.	.	.	.	.	.	.	.	.	.	.	.	.	8g\	.	8ee-\	.	.	.	.	.	.	.	.	.	.
2B-\	.	.	.	.	.	.	.	.	.	.	.	.	.	.	.	.	.	2B-\	.	4f\	.	8dd\	.	2r	.	.	.	.	.	.	.	.
.	.	.	.	.	.	.	.	.	.	.	.	.	.	.	.	.	.	.	.	.	.	4b-\	.	.	.	.	.	.	.	.	.	.
.	.	.	.	.	.	.	.	.	.	.	.	.	.	.	.	.	.	.	.	4g\	.	.	.	.	.	.	.	.	.	.	.	.
.	.	.	.	.	.	.	.	.	.	.	.	.	.	.	.	.	.	.	.	.	.	8dd\	.	.	.	.	.	.	.	.	.	.
2c\	.	.	.	.	.	.	.	.	.	.	.	.	.	.	.	.	.	2c\	.	4g\	.	8b-\	.	8ee-X\	O-	.	.	.	.	.	.	.
.	.	.	.	.	.	.	.	.	.	.	.	.	.	.	.	.	.	.	.	.	.	8b-\	.	4cc\	-san-	.	.	.	.	.	.	.
.	.	.	.	.	.	.	.	.	.	.	.	.	.	.	.	.	.	.	.	4e-X\	.	4g\	.	.	.	.	.	.	.	.	.	.
.	.	.	.	.	.	.	.	.	.	.	.	.	.	.	.	.	.	.	.	.	.	.	.	8ee-\	-na	.	.	.	.	.	.	.
*	*	*	*	*	*	*	*	*	*	*	*	*	*	*	*	*	*	*	*	*	*	*	*	*	*ij	*	*	*	*	*	*	*
2G\	.	.	.	.	.	.	.	.	.	.	.	.	.	.	.	.	.	2G/	.	8g\	.	2b-\	.	8dd\	O-	.	.	.	.	.	.	.
.	.	.	.	.	.	.	.	.	.	.	.	.	.	.	.	.	.	.	.	4g\	.	.	.	4b-\	-san-	.	.	.	.	.	.	.
.	.	.	.	.	.	.	.	.	.	.	.	.	.	.	.	.	.	.	.	8g\	.	.	.	8dd\	-na	.	.	.	.	.	.	.
*	*	*	*	*	*	*	*	*	*	*	*	*	*	*	*	*	*	*	*	*	*	*	*	*	*Xij	*	*	*	*	*	*	*
=24	=24	=24	=24	=24	=24	=24	=24	=24	=24	=24	=24	=24	=24	=24	=24	=24	=24	=24	=24	=24	=24	=24	=24	=24	=24	=24	=24	=24	=24	=24	=24	=24
2A-X\	.	0r	.	0r	.	0r	0r	.	0r	.	0r	.	0r	0r	.	0r	.	2A-X\	.	8e-X\	.	8a-X\	.	8cc\	in	0r	0r	0r	.	0r	0r	0r
.	.	.	.	.	.	.	.	.	.	.	.	.	.	.	.	.	.	.	.	4c\	.	4e-X/	.	8cc\	ex-	.	.	.	.	.	.	.
.	.	.	.	.	.	.	.	.	.	.	.	.	.	.	.	.	.	.	.	.	.	.	.	4cc\	-cel-	.	.	.	.	.	.	.
.	.	.	.	.	.	.	.	.	.	.	.	.	.	.	.	.	.	.	.	8e-\	.	8a-\	.	.	.	.	.	.	.	.	.	.
2E-X\	.	.	.	.	.	.	.	.	.	.	.	.	.	.	.	.	.	2E-X/	.	4.e-\	.	4g\	.	4b-\	-sis	.	.	.	.	.	.	.
*	*	*	*	*	*	*	*	*	*	*	*	*	*	*	*	*	*	*	*	*	*	*	*	*	*ij	*	*	*	*	*	*	*
.	.	.	.	.	.	.	.	.	.	.	.	.	.	.	.	.	.	.	.	.	.	8g\	.	8cc\	in	.	.	.	.	.	.	.
.	.	.	.	.	.	.	.	.	.	.	.	.	.	.	.	.	.	.	.	8g\	.	8g\	.	8cc\	ex-	.	.	.	.	.	.	.
2F\	.	.	.	.	.	.	.	.	.	.	.	.	.	.	.	.	.	2F/	.	4f\	.	4.an\	.	4.cc\	-cel-	.	.	.	.	.	.	.
.	.	.	.	.	.	.	.	.	.	.	.	.	.	.	.	.	.	.	.	4f\	.	.	.	.	.	.	.	.	.	.	.	.
.	.	.	.	.	.	.	.	.	.	.	.	.	.	.	.	.	.	.	.	.	.	8a\	.	16ff\LL	-sis	.	.	.	.	.	.	.
.	.	.	.	.	.	.	.	.	.	.	.	.	.	.	.	.	.	.	.	.	.	.	.	16ee\JJ	.	.	.	.	.	.	.	.
2G\	.	.	.	.	.	.	.	.	.	.	.	.	.	.	.	.	.	2G/	.	2r	.	8bn\	.	8dd\L	in	.	.	.	.	.	.	.
.	.	.	.	.	.	.	.	.	.	.	.	.	.	.	.	.	.	.	.	.	.	4cc\	.	8cc\J	ex-	.	.	.	.	.	.	.
.	.	.	.	.	.	.	.	.	.	.	.	.	.	.	.	.	.	.	.	.	.	.	.	4dd\	-cel-	.	.	.	.	.	.	.
.	.	.	.	.	.	.	.	.	.	.	.	.	.	.	.	.	.	.	.	.	.	8b\	.	.	.	.	.	.	.	.	.	.
=25	=25	=25	=25	=25	=25	=25	=25	=25	=25	=25	=25	=25	=25	=25	=25	=25	=25	=25	=25	=25	=25	=25	=25	=25	=25	=25	=25	=25	=25	=25	=25	=25
!	!	!	!	!	!	!	!	!	!	!	!	!	!	!	!	!	!	!LO:TX:t=P:problem:oddechy jako rozdzielacz słów?	!	!	!	!	!	!	!	!	!	!	!	!	!	!
8C/	.	0r	.	0r	.	0r	0r	.	0r	.	0r	.	0r	0r	.	0r	.	8C/,	.	4.e\	.	8cc\	.	8cc\	-sis	1r	1r	1r	.	1r	1r	1r
4c\	.	.	.	.	.	.	.	.	.	.	.	.	.	.	.	.	.	4c\	.	.	.	4g\	.	4cc\	in	.	.	.	.	.	.	.
8G\	.	.	.	.	.	.	.	.	.	.	.	.	.	.	.	.	.	8G/	.	8g\	.	8b-\	.	8dd\	ex-	.	.	.	.	.	.	.
4d\	.	.	.	.	.	.	.	.	.	.	.	.	.	.	.	.	.	4d\,	.	4f#X\	.	4a\	.	4dd\	-cel-	.	.	.	.	.	.	.
4G\	.	.	.	.	.	.	.	.	.	.	.	.	.	.	.	.	.	4G/	.	4g\	.	4b-\	.	4dd\	-sis	.	.	.	.	.	.	.
8G\L	.	.	.	.	.	.	.	.	.	.	.	.	.	.	.	.	.	8G/	.	8g\	.	8dd\	.	8b-\	in	2r	2r	2r	.	2r	2r	2r
8D\J	.	.	.	.	.	.	.	.	.	.	.	.	.	.	.	.	.	8D/	.	8f#\	.	8dd\	.	8a\	ex-	.	.	.	.	.	.	.
4A\	.	.	.	.	.	.	.	.	.	.	.	.	.	.	.	.	.	4A\	.	4e\	.	4cc#X\	.	4a\	-cel-	.	.	.	.	.	.	.
!	!	!	!	!	!	!	!	!	!	!	!	!	!	!	!	!	!	!LO:TX:t=P:problem:korekta ołówkiem	!	!	!	!	!	!	!	!	!	!	!	!	!	!
!	!	!	!	!	!	!	!	!	!	!	!	!	!	!	!	!	!	!LO:SIC:v:s=4D/	!	!	!	!	!	!	!	!	!	!	!	!	!	!
2D\	.	.	.	.	.	.	.	.	.	.	.	.	.	.	.	.	.	4C/	.	4d\	.	4dd\	.	4a\	-sis	2D\	8A\	8d\	.	8f\	8dd\	8ff\
*	*	*	*	*	*	*	*	*	*	*	*	*	*	*	*	*	*	*	*	*	*	*	*	*	*Xij	*	*	*	*	*	*	*
.	.	.	.	.	.	.	.	.	.	.	.	.	.	.	.	.	.	.	.	.	.	.	.	.	.	.	4A\	4d\	.	4f\	4ff\	4dd\
.	.	.	.	.	.	.	.	.	.	.	.	.	.	.	.	.	.	4r	.	4r	.	4r	.	4r	.	.	.	.	.	.	.	.
.	.	.	.	.	.	.	.	.	.	.	.	.	.	.	.	.	.	.	.	.	.	.	.	.	.	.	8A\	8d\	.	8f\	8dd\	8ff\
!!pagebreak:original
=26	=26	=26	=26	=26	=26	=26	=26	=26	=26	=26	=26	=26	=26	=26	=26	=26	=26	=26	=26	=26	=26	=26	=26	=26	=26	=26	=26	=26	=26	=26	=26	=26
2A\	.	0r	.	0r	.	0r	0r	.	0r	.	0r	.	0r	0r	.	0r	.	0r	.	0r	.	0r	.	0r	.	2A\	2A\	8c\	.	8a\	8cc\	8ee\
.	.	.	.	.	.	.	.	.	.	.	.	.	.	.	.	.	.	.	.	.	.	.	.	.	.	.	.	4c\	.	4a\	4a/	4cc\
.	.	.	.	.	.	.	.	.	.	.	.	.	.	.	.	.	.	.	.	.	.	.	.	.	.	.	.	8a\	.	8e\	8cc\	8ee\
2E\	.	.	.	.	.	.	.	.	.	.	.	.	.	.	.	.	.	.	.	.	.	.	.	.	.	2E\	2e\	4g\	.	4e\	16b-/LL	16gg\LL
.	.	.	.	.	.	.	.	.	.	.	.	.	.	.	.	.	.	.	.	.	.	.	.	.	.	.	.	.	.	.	16a/	16ff\
.	.	.	.	.	.	.	.	.	.	.	.	.	.	.	.	.	.	.	.	.	.	.	.	.	.	.	.	.	.	.	16b-/	16gg\
.	.	.	.	.	.	.	.	.	.	.	.	.	.	.	.	.	.	.	.	.	.	.	.	.	.	.	.	.	.	.	16cc/JJ	16aa\JJ
!	!	!	!	!	!	!	!	!	!	!	!	!	!	!	!	!	!	!	!	!	!	!	!	!	!	!	!	!	!	!	!LO:TX:t=P:problem:mixed beam	!
.	.	.	.	.	.	.	.	.	.	.	.	.	.	.	.	.	.	.	.	.	.	.	.	.	.	.	.	4e\	.	4g\	8.g/L	8gg\L
.	.	.	.	.	.	.	.	.	.	.	.	.	.	.	.	.	.	.	.	.	.	.	.	.	.	.	.	.	.	.	.	8gg\J
.	.	.	.	.	.	.	.	.	.	.	.	.	.	.	.	.	.	.	.	.	.	.	.	.	.	.	.	.	.	.	16gg\Jk	.
2F\	.	.	.	.	.	.	.	.	.	.	.	.	.	.	.	.	.	.	.	.	.	.	.	.	.	2F\	4A/	8a\	.	8c\	8ff\	8aa\
.	.	.	.	.	.	.	.	.	.	.	.	.	.	.	.	.	.	.	.	.	.	.	.	.	.	.	.	4A/	.	4c\	4aa\	4ff\
.	.	.	.	.	.	.	.	.	.	.	.	.	.	.	.	.	.	.	.	.	.	.	.	.	.	.	4F/	.	.	.	.	.
.	.	.	.	.	.	.	.	.	.	.	.	.	.	.	.	.	.	.	.	.	.	.	.	.	.	.	.	8c\	.	8c\	8ff\	8aa\
2C\	.	.	.	.	.	.	.	.	.	.	.	.	.	.	.	.	.	.	.	.	.	.	.	.	.	2C\	8G/	8c\	.	8e\	8ee\	8gg\
.	.	.	.	.	.	.	.	.	.	.	.	.	.	.	.	.	.	.	.	.	.	.	.	.	.	.	4G/	4c\	.	4e\	4cc\	4ee\
.	.	.	.	.	.	.	.	.	.	.	.	.	.	.	.	.	.	.	.	.	.	.	.	.	.	.	8G/	8c\	.	8e\	8ee\	8gg\
=27	=27	=27	=27	=27	=27	=27	=27	=27	=27	=27	=27	=27	=27	=27	=27	=27	=27	=27	=27	=27	=27	=27	=27	=27	=27	=27	=27	=27	=27	=27	=27	=27
2D\	.	0r	.	0r	.	0r	0r	.	0r	.	0r	.	0r	0r	.	0r	.	0r	.	0r	.	0r	.	0r	.	2D\	4.d\	2A/	.	8f\	8dd\	8ff\
.	.	.	.	.	.	.	.	.	.	.	.	.	.	.	.	.	.	.	.	.	.	.	.	.	.	.	.	.	.	4f\	4ff\	4dd\
.	.	.	.	.	.	.	.	.	.	.	.	.	.	.	.	.	.	.	.	.	.	.	.	.	.	.	8A\	.	.	8f\	8dd\	8ff\
2AA\	.	.	.	.	.	.	.	.	.	.	.	.	.	.	.	.	.	.	.	.	.	.	.	.	.	2AA/	2A\	2c\	.	4.g\	16cc\LL	16ee\LL
.	.	.	.	.	.	.	.	.	.	.	.	.	.	.	.	.	.	.	.	.	.	.	.	.	.	.	.	.	.	.	16b-\	16dd\
.	.	.	.	.	.	.	.	.	.	.	.	.	.	.	.	.	.	.	.	.	.	.	.	.	.	.	.	.	.	.	16cc\	16ee\
.	.	.	.	.	.	.	.	.	.	.	.	.	.	.	.	.	.	.	.	.	.	.	.	.	.	.	.	.	.	.	16dd\JJ	16ff\JJ
.	.	.	.	.	.	.	.	.	.	.	.	.	.	.	.	.	.	.	.	.	.	.	.	.	.	.	.	.	.	.	8cc\L	8ee\L
.	.	.	.	.	.	.	.	.	.	.	.	.	.	.	.	.	.	.	.	.	.	.	.	.	.	.	.	.	.	8e\	8ccc\J	8aa\J
!	!	!	!	!	!	!	!	!	!	!	!	!	!	!	!	!	!	!	!	!	!	!	!	!	!	!	!LO:SIC:v:s=4Bn\	!	!	!	!LO:SIC:v:s=4bbn\	!
4E\	.	.	.	.	.	.	.	.	.	.	.	.	.	.	.	.	.	.	.	.	.	.	.	.	.	4E\	4B-\	4e\	.	4e\	4bb-\	4gg#X\
4AA/	.	.	.	.	.	.	.	.	.	.	.	.	.	.	.	.	.	.	.	.	.	.	.	.	.	4AA/	4c\	4c\	.	8e\L	8aa\L	8aa\L
.	.	.	.	.	.	.	.	.	.	.	.	.	.	.	.	.	.	.	.	.	.	.	.	.	.	.	.	.	.	8e\J	8aa\J	8ddd\J
4E\	.	.	.	.	.	.	.	.	.	.	.	.	.	.	.	.	.	.	.	.	.	.	.	.	.	4E\	4Bn\	4e\	.	4e\	4gg#X\	4bbn\
4AA/	.	.	.	.	.	.	.	.	.	.	.	.	.	.	.	.	.	.	.	.	.	.	.	.	.	4AA/	4c\	4e\	.	4e\	4aa\	4aa\
==	==	==	==	==	==	==	==	==	==	==	==	==	==	==	==	==	==	==	==	==	==	==	==	==	==	==	==	==	==	==	==	==
*-	*-	*-	*-	*-	*-	*-	*-	*-	*-	*-	*-	*-	*-	*-	*-	*-	*-	*-	*-	*-	*-	*-	*-	*-	*-	*-	*-	*-	*-	*-	*-	*-
!!!system-decoration: (g1)[(g2)][(g3)][(g4)]s20
!!!RDF**kern: > = above
!!!RDF**kern: < = below
!!!ENC: Anastazja Marusiak
!!!END: 2022-10-21
!!!ENC: Krzysztof Stępień
!!!END: 2022-11-25
!!!YEC: Copyright 2022 Narodowy Instytut Fryderyka Chopina (https://polishscores.org)
!!!YEM: License CC-BY-4.0 (https://creativecommons.org/licenses/by/4.0)
